packages/foundations/assets/icons/functional/images/notification/exclamation_mark_circle_12.svg

<svg width="12" height="12" viewBox="0 0 12 12" fill="none" xmlns="http://www.w3.org/2000/svg">
<g clip-path="url(#clip0_232_413)">
<path fill-rule="evenodd" clip-rule="evenodd" d="M6.00001 1.2C8.64373 1.2 10.8 3.35628 10.8 6C10.8 8.64372 8.64373 10.8 6.00001 10.8C3.35629 10.8 1.20001 8.64372 1.20001 6C1.20001 3.35628 3.35629 1.2 6.00001 1.2ZM6.00001 2.4C4.01251 2.4 2.40001 4.0125 2.40001 6C2.40001 7.9875 4.01251 9.6 6.00001 9.6C7.98751 9.6 9.60001 7.9875 9.60001 6C9.60001 4.0125 7.98751 2.4 6.00001 2.4ZM6.00001 7.2C6.33751 7.2 6.60001 7.46661 6.60001 7.79046C6.60001 8.13332 6.33751 8.4 6.00001 8.4C5.68129 8.4 5.40001 8.13332 5.40001 7.79046C5.40001 7.46661 5.68129 7.2 6.00001 7.2ZM6.60001 3.6V6.6H5.40001V3.6H6.60001Z" fill="#1A1C1F"/>
</g>
<defs>
<clipPath id="clip0_232_413">
<rect width="12" height="12" fill="white"/>
</clipPath>
</defs>
</svg>

<svg xmlns="http://www.w3.org/2000/svg" width="12" height="12" fill="none"><g clip-path="url(#a)"><path fill="#1A1C1F" fill-rule="evenodd" d="M6 1.2A4.81 4.81 0 0 1 10.8 6 4.81 4.81 0 0 1 6 10.8 4.81 4.81 0 0 1 1.2 6 4.81 4.81 0 0 1 6 1.2m0 1.2a3.6 3.6 0 0 0 0 7.2 3.6 3.6 0 0 0 0-7.2m0 4.8c.338 0 .6.267.6.59 0 .343-.262.61-.6.61a.61.61 0 0 1-.6-.61c0-.323.281-.59.6-.59m.6-3.6v3H5.4v-3z" clip-rule="evenodd"/></g><defs><clipPath id="a"><path fill="#fff" d="M0 0h12v12H0z"/></clipPath></defs></svg>
